img/svg/OLX.svg

<svg width="89" height="50" viewBox="0 0 89 50" fill="none" xmlns="http://www.w3.org/2000/svg">
<rect x="44.375" width="11.25" height="50" fill="white"/>
<path fill-rule="evenodd" clip-rule="evenodd" d="M20.3125 45C31.5308 45 40.625 35.9058 40.625 24.6875C40.625 13.4692 31.5308 4.375 20.3125 4.375C9.09424 4.375 0 13.4692 0 24.6875C0 35.9058 9.09424 45 20.3125 45ZM20.625 32.5C24.7672 32.5 28.125 29.1421 28.125 25C28.125 20.8579 24.7672 17.5 20.625 17.5C16.4828 17.5 13.125 20.8579 13.125 25C13.125 29.1421 16.4828 32.5 20.625 32.5Z" fill="white"/>
<mask id="mask0" mask-type="alpha" maskUnits="userSpaceOnUse" x="55" y="8" width="34" height="33">
<path d="M88.0095 16.3328L79.8016 8.125L71.8172 16.1094L63.8328 8.125L55.625 16.3328L63.6094 24.3172L55.625 32.3016L63.8328 40.5095L71.8172 32.525L79.8017 40.5095L88.0095 32.3016L80.0251 24.3172L88.0095 16.3328Z" fill="white"/>
</mask>
<g mask="url(#mask0)">
<rect x="60" y="12.5" width="23.75" height="23.75" fill="white"/>
</g>
</svg>

<svg width="89" height="50" fill="none" xmlns="http://www.w3.org/2000/svg"><path fill="#fff" d="M44.375 0h11.25v50h-11.25z"/><path fill-rule="evenodd" clip-rule="evenodd" d="M20.313 45c11.218 0 20.312-9.094 20.312-20.313 0-11.218-9.094-20.312-20.313-20.312C9.095 4.375 0 13.469 0 24.688 0 35.906 9.094 45 20.313 45zm.312-12.5a7.5 7.5 0 100-15 7.5 7.5 0 000 15z" fill="#fff"/><mask id="a" maskUnits="userSpaceOnUse" x="55" y="8" width="34" height="33"><path d="M88.01 16.333l-8.208-8.208-7.985 7.984-7.984-7.984-8.208 8.208 7.984 7.984-7.984 7.985 8.208 8.208 7.984-7.985 7.985 7.985 8.207-8.208-7.984-7.985 7.984-7.984z" fill="#fff"/></mask><g mask="url(#a)"><path fill="#fff" d="M60 12.5h23.75v23.75H60z"/></g></svg>
